!!!!SEGMENT: pl-sa--l-1636--073_anonim--ante-agnus-paschale.krn
!!!cenid: 17xx:780
!!!COM: Anonim
!!!COM-rismID: pe30004985
!!!CDT:
!!!CNT:
!!!OTL: ante Agnus Paschale
!!!PDT:
!!!AGN: Sacred
!!!SMS-siglum: PL-SA
!!!SMS-shelfmark: L 1636
!!!SMS-shelfwork: 073 W
!!!SMS-variant:
!!!SMS-altvar:
!!!NIFC-rismSourceID: 1001076916
!!!NIFC-rismChildID: 1001076916
!!!NIFC-islandoraID:
!!!URL-pdf-islandora:
!!!URL-scan:
!!!ONB-nifc: 21v-22r, skan 0025, s. 4-6
!!!AIN: 1 empty
!!!key:
**kern	**kern
*part1	*part1
*staff2	*staff1
*Iempty	*Iempty
*I"[Keyboard]	*
*I'keyb	*
*clefF4	*clefG2
*k[f#]	*k[f#]
*a:	*a:
*M2/2	*M2/2
*met(c|)	*met(c|)
=1	=1
*2\right	*2\right
*^	*
!	!	!LO:TX:b:i:t=ante Agnus Paschale
2G/	1E [<1EE	2b 2g/
2A/	.	2cc 2a/
*v	*v	*
=2	=2
1A 1E 1EE]	16cc/LL
.	16e/
.	16f#X/
.	16g#X/JJ
.	16a/LL
.	16b/
.	16cc/
.	16dd/JJ
.	16ee\LL
.	16dd\
.	16cc\
.	16b\JJ
.	16a\LL
.	16cc\
.	16b\
.	16a\JJ
!!LO:PB:g=original
=3	=3
1G 1E 1EE	1b 1g 1e
=4	=4
2C 2GG 2CC/	1cc 1g 1e
8r	.
16C/LL	.
16D/JJ	.
8E\L	.
8D\J	.
=5	=5
*	*^
8G\L	2dd 2b/	1g
8A\	.	.
8B\	.	.
8G\J	.	.
8c\L	2ee 2cc/	.
16B\L	.	.
16A\JJ	.	.
16G\LL	.	.
16F#\	.	.
16E\	.	.
16D\JJ	.	.
=6	=6	=6
*^	*	*
4G 4E/	4C\	2cc/	4g 4d\
4A/	4AA\	.	4a\
2E/	2EE/	2b/	4a\
.	.	.	4g#X\
*	*	*v	*v
=7	=7	=7
2A 2E/	2AA/	2a/
4G 4E/	4C\	8e/L
!	!	!LO:TX:b:t=P:problem=# below
.	.	16f#X/L
.	.	16g/JJ
!	!	!LO:TX:b:t=P:problem=# below
4A 4F#X/	4D\	8f#X/L
.	.	16g/L
.	.	16a/JJ
=8	=8	=8
!	!	!LO:TX:b:t=P:problem=# below
4B 4G#X/	4E\	8g#X/L
.	.	16a/L
.	.	16b/JJ
4A/	4F#X\	8a/L
.	.	16b/L
.	.	16cc/JJ
!	!	!LO:TX:a:t=P:problem=w tym miejscu łamanie systemu
4B/	4G#\	8b\L
.	.	16cc\L
.	.	16dd\JJ
4c/	4A\	8cc\L
.	.	16dd\L
.	.	16ee\JJ
!!LO:LB:g=original
=9	=9	=9
2d/	2B\	8dd\L
.	.	16ee\L
.	.	16ff#\JJ
.	.	8gg\L
.	.	8ff#\J
8c\L	2ryy	8ee\L
8B\	.	8dd\
8A\	.	8cc\
8G\J	.	8b\J
=10	=10	=10
8A/L	8F#\L	8a\L
8G/J	8E\J	16b\L
.	.	16cc\JJ
4F#/	4D\	8dd\L
.	.	8cc\J
2G/	2E\	8b/L
.	.	8a/
.	.	8g/
.	.	8f#/J
=11	=11	=11
2G/	2C\	8e/L
.	.	16f#/L
.	.	16g/JJ
.	.	8f#/L
.	.	8e/J
2G 2D/	2GG\	8d/L
.	.	16e/L
.	.	16f#/JJ
.	.	8g/L
.	.	8f#/J
=12	=12	=12
4G/	2C\	4e/
4E/	.	4g/
4c 4F#/	4C\	4a/
4B 4G/	4BB\	4b/
=13	=13	=13
*	*	*^
1A 1E	1AA	1cc	8a\L
.	.	.	8e\
.	.	.	8f#X\
.	.	.	8g#X\J
.	.	.	2a\
=14	=14	=14	=14
!LO:TX:a:t=P:problem=nuty nieczytelne - defekt źródła	!	!	!
1 1 1	1EE	1b 1g#X	1e
*v	*v	*	*
*	*v	*v
==	==
*-	*-
!!!system-decoration: s1,s2
!!!RDF**kern: > = above
!!!RDF**kern: < = below
!!!EED: Antoni Szymański
!!!EEV: 2020-12-08
!!!ENC: Anastazja Marusiak
!!!END: 2020-06-12
!!!YEC: Copyright 2022 Narodowy Instytut Fryderyka Chopina (https://polishscores.org)
!!!YEM: License CC-BY-4.0 (https://creativecommons.org/licenses/by/4.0)
